X:1
T:Olvera Street, 87.87 D
T:Olvera Street, 87.87 D
T:James Holmes Rosecrans, 1880
T:Public Domain Courtesy of the Cyber Hymnal™
C:James Holmes Rosecrans, 1880
Z:Public Domain
Z:Courtesy of the Cyber Hymnal™
%%score ( 1 2 ) ( 3 4 )
L:1/8
Q:1/4=104
M:4/4
K:Ab
V:1 treble 
V:2 treble 
V:3 bass 
V:4 bass 
V:1
 [CE]2 | [CE]2 [DF]>[=B,=D] [CE]2 [EA]2 | [DB]4 [DF]2 [=DA]2 | [EG]2 (GF) E2 [Ed]>[Ed] | %4
 [Ec]6 [CE]2 | [CE]2 [DF]>[=B,=D] [CE]2 [EA]2 | [DB]4 [DF]2 [Dd]2 | [Ec]2 (BA) [Ec]2 [Ec]>[DB] | %8
 [CA]6 [Ec]2 | [Fc]2 [=Ec][Ec] [Fc]2 (cB) | [FA]4 [CA]2 [CA]2 | [=DB]2 (Bc) (BA)[DG][DF] | %12
 E6 [DE]2 | [CE]2 [DF]>[=B,=D] [CE]2 [EA]2 | ([DB]4 [DF]2) [Dd]2 | [Ec]2 (BA) [Ec]2 [Ec]>[DB] | %16
 [CA]6 |] %17
V:2
 x2 | x8 | x8 | x2 E2 E2 x2 | x8 | x8 | x8 | x2 F2 x4 | x8 | x6 =E2 | x8 | x2 =D2 D2 x2 | E6 x2 | %13
 x8 | x8 | x2 F2 x4 | x6 |] %17
V:3
 [A,,A,]2 | [A,,A,]2 [A,,A,]>[A,,A,] [A,,A,]2 [C,A,]2 | [D,F,]4 [D,A,]2 [B,,B,]2 | %3
 [E,B,]2 (B,A,) [E,G,]2 [E,G,]>[E,G,] | A,6 [A,,A,]2 | [A,,A,]2 [A,,A,]>[A,,A,] [A,,A,]2 [C,A,]2 | %6
 [D,F,]4 [D,A,]2 [B,,B,]2 | [C,A,]2 [D,A,]2 [E,A,]2 [E,G,]>[E,G,] | [A,,A,]6 A,2 | %9
 [F,A,]2 [C,G,][C,G,] [F,A,]2 [C,G,]2 | [F,A,]4 [F,A,]2 F,2 | %11
 [B,,F,]2 [B,,F,]2 [B,,F,]2 [B,,B,][B,,A,] | [E,G,]2 [D,B,]2 [C,A,]2 [C,G,]2 | %13
 [A,,A,]2 [A,,A,]>[A,,A,] [A,,A,]2 [C,A,]2 | [D,F,]4 [D,A,]2 [B,,B,]2 | %15
 [C,A,]2 [D,A,]2 [E,A,]2 [E,G,]>[E,G,] | [A,,A,]6 |] %17
V:4
 x2 | x8 | x8 | x2 E,2 x4 | A,6 x2 | x8 | x8 | x8 | x6 A,2 | x8 | x6 F,2 | x8 | x8 | x8 | x8 | x8 | %16
 x6 |] %17

